!!!OTL: "Liebesplauderei" VOR MEINES HERZLIEBCHENS FENSTER
!!!ARE: Europa, Mitteleuropa, Deutschland, Niederrhein
!!!SCT: Z1185
!!!YEM: Copyright 1995, estate of Helmut Schaffrath.
**kern
*ICvox
*Ivox
*M6/8
*k[f#]
*G:
{8d
=1
8g
8g
8a
8b
8g
8a
=2
4.b
4a}
{16b
16cc
=3
8dd
8cc
8b
8a
8g
8a
=4
4b
4.r}
{8b
=5
8dd
8cc
8b
8a
8g
8a
=6
4g
8e
4d}
{8d
=7
4b
8g
4a}
{16b
16cc
=8
8.dd
16cc
8b
8a
8g
8a
=9
2g
8r}
==
!!!AGN: Liebes - Lied, Abschieds - Lied
!!!ONB: ESAC (Essen Associative Code) Database: ZUCCAL
!!!AMT: compound duple
!!!AIN: vox
!!!EED: Helmut Schaffrath
!!!EEV: 1.0
*-
